X:76
T:Eight and Forty Sisters (reel), The 
B:CRE2.289 (Octhar Deirfiur is Daichead)
F:file ID: cre.2/076eight
N:1:Second part similar to second part of "Toss the Feathers"
N:2:I have dispensed with Breathnach's grace notes.
R:reel
Q:180
L:1/8
M:4/4
K:G
DBBA B2B2|EBBA FAAF|f2eB fedB|e2fe dBAF|
DBBA B2BB|EBBA FAAF|f2eB fedB|e2fe dBAF|]
Bee2 e2de|fede fee2|ebba fbaf|e2fe dBAF:|

%%%

